X:260
T: EDLE FREIHEIT DU MEIN LEBEN
N: E1400
O: Europa, Mitteleuropa, Deutschland, Hessen, Nassau
R: Staende -, Soldaten - Lied, Klage
M: 4/4
L: 1/8
K: G
DD | G2D2GBdB | BAA2z2
BA | G2FED2EF | G4z2
DD | G2D2G2B2 | BAA2z2
Bc | d2B2c2A2 | Bdced2
Bc | d2B2c2dc | B2z4

@@@ Tune index: 4944
